icons/cloudy-moon.svg

<svg width="24" height="24" viewBox="0 0 24 24" fill="none" xmlns="http://www.w3.org/2000/svg">
<path d="M13.9994 7.77591C13.9998 7.74559 14 7.71522 14 7.6848C13.9999 6.13349 13.4951 4.62801 12.5682 3.41397C11.6412 2.19993 10.3465 1.34901 8.89565 1C9.14518 2.13332 9.1143 3.31411 8.8059 4.43159C8.49751 5.54908 7.9217 6.56665 7.1325 7.38884C6.3433 8.21103 5.36657 8.81091 4.29392 9.1322C3.22128 9.45349 2.08785 9.48576 1 9.2258C1.23437 10.2808 1.70473 11.2632 2.37273 12.0928C2.95659 12.818 3.67699 13.4086 4.48785 13.8289" stroke="#1E293B" stroke-width="2" stroke-linecap="round" stroke-linejoin="round"/>
<path d="M8.8539 14.3082C8.8539 12.9846 9.2394 11.6908 9.96166 10.5903C10.6839 9.48983 11.7105 8.63211 12.9116 8.12561C13.2652 7.97649 13.6292 7.85979 13.9994 7.77593C14.8868 7.57495 15.8096 7.56261 16.7093 7.7448C17.9843 8.00301 19.1555 8.64036 20.0748 9.57624C20.9941 10.5121 21.6201 11.7045 21.8737 13.0026C22.1273 14.3007 21.9972 15.6463 21.4997 16.8691C21.0022 18.0919 20.1597 19.137 19.0787 19.8723C17.9978 20.6076 16.727 21.0001 15.4269 21.0001H7.69395C7.07641 20.9996 6.46639 20.8622 5.90629 20.5974C5.34619 20.3326 4.84944 19.9468 4.45057 19.4668C4.0517 18.9869 3.76028 18.4242 3.59656 17.818C3.43284 17.2118 3.40075 16.5766 3.50252 15.9564C3.60429 15.3363 3.83747 14.7462 4.18587 14.2271C4.27909 14.0882 4.37995 13.9553 4.48786 13.829C4.78326 13.4831 5.13145 13.1863 5.51998 12.9505C6.05045 12.6286 6.6434 12.4282 7.25762 12.3632C7.87185 12.2981 8.49262 12.3701 9.07679 12.574" stroke="#1E293B" stroke-width="2" stroke-linecap="round" stroke-linejoin="round"/>
</svg>

<svg
  width="24"
  height="24"
  viewBox="0 0 24 24"
  xmlns="http://www.w3.org/2000/svg"
  fill="none"
  stroke="currentColor"
  stroke-width="2"
  stroke-linecap="round"
  stroke-linejoin="round"
>
  <path d="M14 7.776v-.091a7.045 7.045 0 0 0-1.432-4.271A6.56 6.56 0 0 0 8.896 1a7.142 7.142 0 0 1-.09 3.432 6.93 6.93 0 0 1-1.673 2.957 6.539 6.539 0 0 1-2.84 1.743A6.334 6.334 0 0 1 1 9.226a6.987 6.987 0 0 0 1.373 2.867 6.645 6.645 0 0 0 2.115 1.736" />
  <path d="M8.854 14.308c0-1.323.385-2.617 1.108-3.718a6.6 6.6 0 0 1 2.95-2.464 6.46 6.46 0 0 1 3.798-.38 6.538 6.538 0 0 1 3.365 1.83 6.73 6.73 0 0 1 1.799 3.427 6.805 6.805 0 0 1-.374 3.866 6.667 6.667 0 0 1-2.421 3.003A6.49 6.49 0 0 1 15.427 21H7.694a4.19 4.19 0 0 1-1.788-.403 4.263 4.263 0 0 1-1.455-1.13 4.356 4.356 0 0 1-.854-1.649 4.406 4.406 0 0 1 .589-3.59A4.312 4.312 0 0 1 5.52 12.95a4.181 4.181 0 0 1 3.557-.377" />
</svg>
